img/envelope.svg

<svg width="24" height="20" viewBox="0 0 24 20" fill="none" xmlns="http://www.w3.org/2000/svg">
<g filter="url(#filter0_d)">
<mask id="path-1-inside-1" fill="white">
<path d="M18.5 0H5.50001C4.67285 0 4 0.628107 4 1.40026V9.80173C4 10.5739 4.67285 11.202 5.50001 11.202H18.5C19.3271 11.202 20 10.5739 20 9.80173V1.40026C20 0.628107 19.3271 0 18.5 0ZM18.5 0.933493C18.5679 0.933493 18.6325 0.94665 18.6916 0.969628L12 6.38361L5.30833 0.969628C5.36742 0.946681 5.43204 0.933493 5.49998 0.933493H18.5ZM18.5 10.2685H5.50001C5.22414 10.2685 5 10.0593 5 9.80169V1.95587L11.6724 7.35402C11.7666 7.43013 11.8833 7.46798 12 7.46798C12.1167 7.46798 12.2334 7.43016 12.3276 7.35402L19 1.95587V9.80173C19 10.0593 18.7759 10.2685 18.5 10.2685Z"/>
</mask>
<path d="M18.5 0H5.50001C4.67285 0 4 0.628107 4 1.40026V9.80173C4 10.5739 4.67285 11.202 5.50001 11.202H18.5C19.3271 11.202 20 10.5739 20 9.80173V1.40026C20 0.628107 19.3271 0 18.5 0ZM18.5 0.933493C18.5679 0.933493 18.6325 0.94665 18.6916 0.969628L12 6.38361L5.30833 0.969628C5.36742 0.946681 5.43204 0.933493 5.49998 0.933493H18.5ZM18.5 10.2685H5.50001C5.22414 10.2685 5 10.0593 5 9.80169V1.95587L11.6724 7.35402C11.7666 7.43013 11.8833 7.46798 12 7.46798C12.1167 7.46798 12.2334 7.43016 12.3276 7.35402L19 1.95587V9.80173C19 10.0593 18.7759 10.2685 18.5 10.2685Z" fill="#2196F3"/>
<path d="M18.6916 0.969628L19.3639 1.8005L20.7964 0.641465L19.079 -0.0264567L18.6916 0.969628ZM12 6.38361L11.3278 7.21449L12 7.75837L12.6722 7.21449L12 6.38361ZM5.30833 0.969628L4.9214 -0.0266342L3.20278 0.640855L4.6361 1.80051L5.30833 0.969628ZM5 1.95587L5.67221 1.12498L3.93123 -0.283526V1.95587H5ZM11.6724 7.35402L11.0001 8.18491L11.0009 8.18555L11.6724 7.35402ZM12.3276 7.35402L12.9992 8.18542L12.9999 8.18491L12.3276 7.35402ZM19 1.95587H20.0688V-0.283526L18.3278 1.12498L19 1.95587ZM19 9.80173L20.0688 9.80186V9.80173H19ZM18.5 -1.06876H5.50001V1.06876H18.5V-1.06876ZM5.50001 -1.06876C4.15306 -1.06876 2.93124 -0.030239 2.93124 1.40026H5.06876C5.06876 1.28645 5.19265 1.06876 5.50001 1.06876V-1.06876ZM2.93124 1.40026V9.80173H5.06876V1.40026H2.93124ZM2.93124 9.80173C2.93124 11.2322 4.15306 12.2707 5.50001 12.2707V10.1332C5.19265 10.1332 5.06876 9.91553 5.06876 9.80173H2.93124ZM5.50001 12.2707H18.5V10.1332H5.50001V12.2707ZM18.5 12.2707C19.8469 12.2707 21.0688 11.2322 21.0688 9.80173H18.9312C18.9312 9.91553 18.8074 10.1332 18.5 10.1332V12.2707ZM21.0688 9.80173V1.40026H18.9312V9.80173H21.0688ZM21.0688 1.40026C21.0688 -0.0302396 19.8469 -1.06876 18.5 -1.06876V1.06876C18.8074 1.06876 18.9312 1.28645 18.9312 1.40026H21.0688ZM18.5 2.00226C18.4289 2.00226 18.3624 1.98834 18.3042 1.96571L19.079 -0.0264567C18.9027 -0.0950385 18.707 -0.135271 18.5 -0.135271V2.00226ZM18.0194 0.138752L11.3278 5.55274L12.6722 7.21449L19.3639 1.8005L18.0194 0.138752ZM12.6722 5.55274L5.98057 0.13875L4.6361 1.80051L11.3278 7.21449L12.6722 5.55274ZM5.69527 1.96589C5.6377 1.98825 5.57143 2.00226 5.49998 2.00226V-0.135271C5.29266 -0.135271 5.09713 -0.0948848 4.9214 -0.0266342L5.69527 1.96589ZM5.49998 2.00226H18.5V-0.135271H5.49998V2.00226ZM18.5 9.19969H5.50001V11.3372H18.5V9.19969ZM5.50001 9.19969C5.74388 9.19969 6.06876 9.40086 6.06876 9.80169H3.93123C3.93123 10.7176 4.70439 11.3372 5.50001 11.3372V9.19969ZM6.06876 9.80169V1.95587H3.93123V9.80169H6.06876ZM4.32778 2.78677L11.0001 8.18491L12.3446 6.52313L5.67221 1.12498L4.32778 2.78677ZM11.0009 8.18555C11.2974 8.42492 11.655 8.53674 12 8.53674V6.39921C12.1117 6.39921 12.2358 6.43534 12.3438 6.52249L11.0009 8.18555ZM12 8.53674C12.3449 8.53674 12.7026 8.42505 12.9992 8.18542L11.656 6.52263C11.7642 6.43526 11.8885 6.39921 12 6.39921V8.53674ZM12.9999 8.18491L19.6722 2.78677L18.3278 1.12498L11.6554 6.52313L12.9999 8.18491ZM17.9312 1.95587V9.80173H20.0688V1.95587H17.9312ZM17.9312 9.80159C17.9313 9.40091 18.256 9.19969 18.5 9.19969V11.3372C19.2957 11.3372 20.0686 10.7176 20.0688 9.80186L17.9312 9.80159Z" fill="black" mask="url(#path-1-inside-1)"/>
<path d="M18.6916 0.969628L19.3639 1.8005L20.7964 0.641465L19.079 -0.0264567L18.6916 0.969628ZM12 6.38361L11.3278 7.21449L12 7.75837L12.6722 7.21449L12 6.38361ZM5.30833 0.969628L4.9214 -0.0266342L3.20278 0.640855L4.6361 1.80051L5.30833 0.969628ZM5 1.95587L5.67221 1.12498L3.93123 -0.283526V1.95587H5ZM11.6724 7.35402L11.0001 8.18491L11.0009 8.18555L11.6724 7.35402ZM12.3276 7.35402L12.9992 8.18542L12.9999 8.18491L12.3276 7.35402ZM19 1.95587H20.0688V-0.283526L18.3278 1.12498L19 1.95587ZM19 9.80173L20.0688 9.80186V9.80173H19ZM18.5 -1.06876H5.50001V1.06876H18.5V-1.06876ZM5.50001 -1.06876C4.15306 -1.06876 2.93124 -0.030239 2.93124 1.40026H5.06876C5.06876 1.28645 5.19265 1.06876 5.50001 1.06876V-1.06876ZM2.93124 1.40026V9.80173H5.06876V1.40026H2.93124ZM2.93124 9.80173C2.93124 11.2322 4.15306 12.2707 5.50001 12.2707V10.1332C5.19265 10.1332 5.06876 9.91553 5.06876 9.80173H2.93124ZM5.50001 12.2707H18.5V10.1332H5.50001V12.2707ZM18.5 12.2707C19.8469 12.2707 21.0688 11.2322 21.0688 9.80173H18.9312C18.9312 9.91553 18.8074 10.1332 18.5 10.1332V12.2707ZM21.0688 9.80173V1.40026H18.9312V9.80173H21.0688ZM21.0688 1.40026C21.0688 -0.0302396 19.8469 -1.06876 18.5 -1.06876V1.06876C18.8074 1.06876 18.9312 1.28645 18.9312 1.40026H21.0688ZM18.5 2.00226C18.4289 2.00226 18.3624 1.98834 18.3042 1.96571L19.079 -0.0264567C18.9027 -0.0950385 18.707 -0.135271 18.5 -0.135271V2.00226ZM18.0194 0.138752L11.3278 5.55274L12.6722 7.21449L19.3639 1.8005L18.0194 0.138752ZM12.6722 5.55274L5.98057 0.13875L4.6361 1.80051L11.3278 7.21449L12.6722 5.55274ZM5.69527 1.96589C5.6377 1.98825 5.57143 2.00226 5.49998 2.00226V-0.135271C5.29266 -0.135271 5.09713 -0.0948848 4.9214 -0.0266342L5.69527 1.96589ZM5.49998 2.00226H18.5V-0.135271H5.49998V2.00226ZM18.5 9.19969H5.50001V11.3372H18.5V9.19969ZM5.50001 9.19969C5.74388 9.19969 6.06876 9.40086 6.06876 9.80169H3.93123C3.93123 10.7176 4.70439 11.3372 5.50001 11.3372V9.19969ZM6.06876 9.80169V1.95587H3.93123V9.80169H6.06876ZM4.32778 2.78677L11.0001 8.18491L12.3446 6.52313L5.67221 1.12498L4.32778 2.78677ZM11.0009 8.18555C11.2974 8.42492 11.655 8.53674 12 8.53674V6.39921C12.1117 6.39921 12.2358 6.43534 12.3438 6.52249L11.0009 8.18555ZM12 8.53674C12.3449 8.53674 12.7026 8.42505 12.9992 8.18542L11.656 6.52263C11.7642 6.43526 11.8885 6.39921 12 6.39921V8.53674ZM12.9999 8.18491L19.6722 2.78677L18.3278 1.12498L11.6554 6.52313L12.9999 8.18491ZM17.9312 1.95587V9.80173H20.0688V1.95587H17.9312ZM17.9312 9.80159C17.9313 9.40091 18.256 9.19969 18.5 9.19969V11.3372C19.2957 11.3372 20.0686 10.7176 20.0688 9.80186L17.9312 9.80159Z" fill="url(#paint0_linear)" mask="url(#path-1-inside-1)"/>
<path d="M18.6916 0.969628L19.3639 1.8005L20.7964 0.641465L19.079 -0.0264567L18.6916 0.969628ZM12 6.38361L11.3278 7.21449L12 7.75837L12.6722 7.21449L12 6.38361ZM5.30833 0.969628L4.9214 -0.0266342L3.20278 0.640855L4.6361 1.80051L5.30833 0.969628ZM5 1.95587L5.67221 1.12498L3.93123 -0.283526V1.95587H5ZM11.6724 7.35402L11.0001 8.18491L11.0009 8.18555L11.6724 7.35402ZM12.3276 7.35402L12.9992 8.18542L12.9999 8.18491L12.3276 7.35402ZM19 1.95587H20.0688V-0.283526L18.3278 1.12498L19 1.95587ZM19 9.80173L20.0688 9.80186V9.80173H19ZM18.5 -1.06876H5.50001V1.06876H18.5V-1.06876ZM5.50001 -1.06876C4.15306 -1.06876 2.93124 -0.030239 2.93124 1.40026H5.06876C5.06876 1.28645 5.19265 1.06876 5.50001 1.06876V-1.06876ZM2.93124 1.40026V9.80173H5.06876V1.40026H2.93124ZM2.93124 9.80173C2.93124 11.2322 4.15306 12.2707 5.50001 12.2707V10.1332C5.19265 10.1332 5.06876 9.91553 5.06876 9.80173H2.93124ZM5.50001 12.2707H18.5V10.1332H5.50001V12.2707ZM18.5 12.2707C19.8469 12.2707 21.0688 11.2322 21.0688 9.80173H18.9312C18.9312 9.91553 18.8074 10.1332 18.5 10.1332V12.2707ZM21.0688 9.80173V1.40026H18.9312V9.80173H21.0688ZM21.0688 1.40026C21.0688 -0.0302396 19.8469 -1.06876 18.5 -1.06876V1.06876C18.8074 1.06876 18.9312 1.28645 18.9312 1.40026H21.0688ZM18.5 2.00226C18.4289 2.00226 18.3624 1.98834 18.3042 1.96571L19.079 -0.0264567C18.9027 -0.0950385 18.707 -0.135271 18.5 -0.135271V2.00226ZM18.0194 0.138752L11.3278 5.55274L12.6722 7.21449L19.3639 1.8005L18.0194 0.138752ZM12.6722 5.55274L5.98057 0.13875L4.6361 1.80051L11.3278 7.21449L12.6722 5.55274ZM5.69527 1.96589C5.6377 1.98825 5.57143 2.00226 5.49998 2.00226V-0.135271C5.29266 -0.135271 5.09713 -0.0948848 4.9214 -0.0266342L5.69527 1.96589ZM5.49998 2.00226H18.5V-0.135271H5.49998V2.00226ZM18.5 9.19969H5.50001V11.3372H18.5V9.19969ZM5.50001 9.19969C5.74388 9.19969 6.06876 9.40086 6.06876 9.80169H3.93123C3.93123 10.7176 4.70439 11.3372 5.50001 11.3372V9.19969ZM6.06876 9.80169V1.95587H3.93123V9.80169H6.06876ZM4.32778 2.78677L11.0001 8.18491L12.3446 6.52313L5.67221 1.12498L4.32778 2.78677ZM11.0009 8.18555C11.2974 8.42492 11.655 8.53674 12 8.53674V6.39921C12.1117 6.39921 12.2358 6.43534 12.3438 6.52249L11.0009 8.18555ZM12 8.53674C12.3449 8.53674 12.7026 8.42505 12.9992 8.18542L11.656 6.52263C11.7642 6.43526 11.8885 6.39921 12 6.39921V8.53674ZM12.9999 8.18491L19.6722 2.78677L18.3278 1.12498L11.6554 6.52313L12.9999 8.18491ZM17.9312 1.95587V9.80173H20.0688V1.95587H17.9312ZM17.9312 9.80159C17.9313 9.40091 18.256 9.19969 18.5 9.19969V11.3372C19.2957 11.3372 20.0686 10.7176 20.0688 9.80186L17.9312 9.80159Z" fill="url(#paint1_linear)" mask="url(#path-1-inside-1)"/>
<path d="M18.6916 0.969628L19.3639 1.8005L20.7964 0.641465L19.079 -0.0264567L18.6916 0.969628ZM12 6.38361L11.3278 7.21449L12 7.75837L12.6722 7.21449L12 6.38361ZM5.30833 0.969628L4.9214 -0.0266342L3.20278 0.640855L4.6361 1.80051L5.30833 0.969628ZM5 1.95587L5.67221 1.12498L3.93123 -0.283526V1.95587H5ZM11.6724 7.35402L11.0001 8.18491L11.0009 8.18555L11.6724 7.35402ZM12.3276 7.35402L12.9992 8.18542L12.9999 8.18491L12.3276 7.35402ZM19 1.95587H20.0688V-0.283526L18.3278 1.12498L19 1.95587ZM19 9.80173L20.0688 9.80186V9.80173H19ZM18.5 -1.06876H5.50001V1.06876H18.5V-1.06876ZM5.50001 -1.06876C4.15306 -1.06876 2.93124 -0.030239 2.93124 1.40026H5.06876C5.06876 1.28645 5.19265 1.06876 5.50001 1.06876V-1.06876ZM2.93124 1.40026V9.80173H5.06876V1.40026H2.93124ZM2.93124 9.80173C2.93124 11.2322 4.15306 12.2707 5.50001 12.2707V10.1332C5.19265 10.1332 5.06876 9.91553 5.06876 9.80173H2.93124ZM5.50001 12.2707H18.5V10.1332H5.50001V12.2707ZM18.5 12.2707C19.8469 12.2707 21.0688 11.2322 21.0688 9.80173H18.9312C18.9312 9.91553 18.8074 10.1332 18.5 10.1332V12.2707ZM21.0688 9.80173V1.40026H18.9312V9.80173H21.0688ZM21.0688 1.40026C21.0688 -0.0302396 19.8469 -1.06876 18.5 -1.06876V1.06876C18.8074 1.06876 18.9312 1.28645 18.9312 1.40026H21.0688ZM18.5 2.00226C18.4289 2.00226 18.3624 1.98834 18.3042 1.96571L19.079 -0.0264567C18.9027 -0.0950385 18.707 -0.135271 18.5 -0.135271V2.00226ZM18.0194 0.138752L11.3278 5.55274L12.6722 7.21449L19.3639 1.8005L18.0194 0.138752ZM12.6722 5.55274L5.98057 0.13875L4.6361 1.80051L11.3278 7.21449L12.6722 5.55274ZM5.69527 1.96589C5.6377 1.98825 5.57143 2.00226 5.49998 2.00226V-0.135271C5.29266 -0.135271 5.09713 -0.0948848 4.9214 -0.0266342L5.69527 1.96589ZM5.49998 2.00226H18.5V-0.135271H5.49998V2.00226ZM18.5 9.19969H5.50001V11.3372H18.5V9.19969ZM5.50001 9.19969C5.74388 9.19969 6.06876 9.40086 6.06876 9.80169H3.93123C3.93123 10.7176 4.70439 11.3372 5.50001 11.3372V9.19969ZM6.06876 9.80169V1.95587H3.93123V9.80169H6.06876ZM4.32778 2.78677L11.0001 8.18491L12.3446 6.52313L5.67221 1.12498L4.32778 2.78677ZM11.0009 8.18555C11.2974 8.42492 11.655 8.53674 12 8.53674V6.39921C12.1117 6.39921 12.2358 6.43534 12.3438 6.52249L11.0009 8.18555ZM12 8.53674C12.3449 8.53674 12.7026 8.42505 12.9992 8.18542L11.656 6.52263C11.7642 6.43526 11.8885 6.39921 12 6.39921V8.53674ZM12.9999 8.18491L19.6722 2.78677L18.3278 1.12498L11.6554 6.52313L12.9999 8.18491ZM17.9312 1.95587V9.80173H20.0688V1.95587H17.9312ZM17.9312 9.80159C17.9313 9.40091 18.256 9.19969 18.5 9.19969V11.3372C19.2957 11.3372 20.0686 10.7176 20.0688 9.80186L17.9312 9.80159Z" fill="url(#paint2_linear)" mask="url(#path-1-inside-1)"/>
</g>
<defs>
<filter id="filter0_d" x="0" y="0" width="24" height="19.202" filterUnits="userSpaceOnUse" color-interpolation-filters="sRGB">
<feFlood flood-opacity="0" result="BackgroundImageFix"/>
<feColorMatrix in="SourceAlpha" type="matrix" values="0 0 0 0 0 0 0 0 0 0 0 0 0 0 0 0 0 0 127 0"/>
<feOffset dy="4"/>
<feGaussianBlur stdDeviation="2"/>
<feColorMatrix type="matrix" values="0 0 0 0 0 0 0 0 0 0 0 0 0 0 0 0 0 0 0.25 0"/>
<feBlend mode="normal" in2="BackgroundImageFix" result="effect1_dropShadow"/>
<feBlend mode="normal" in="SourceGraphic" in2="effect1_dropShadow" result="shape"/>
</filter>
<linearGradient id="paint0_linear" x1="12" y1="0" x2="12" y2="11.202" gradientUnits="userSpaceOnUse">
<stop stop-color="white"/>
<stop offset="1" stop-color="white" stop-opacity="0"/>
</linearGradient>
<linearGradient id="paint1_linear" x1="12" y1="0" x2="12" y2="11.202" gradientUnits="userSpaceOnUse">
<stop stop-color="white"/>
<stop offset="1" stop-color="white" stop-opacity="0"/>
</linearGradient>
<linearGradient id="paint2_linear" x1="12" y1="0" x2="12" y2="11.202" gradientUnits="userSpaceOnUse">
<stop stop-color="white"/>
<stop offset="1" stop-color="white" stop-opacity="0"/>
</linearGradient>
</defs>
</svg>

<svg width="24" height="20" fill="none" xmlns="http://www.w3.org/2000/svg"><g filter="url(#filter0_d)"><mask id="a" fill="#fff"><path d="M18.5 0h-13C4.673 0 4 .628 4 1.4v8.402c0 .772.673 1.4 1.5 1.4h13c.827 0 1.5-.628 1.5-1.4V1.4c0-.772-.673-1.4-1.5-1.4zm0 .933c.068 0 .133.014.192.037L12 6.384 5.308.97A.529.529 0 015.5.933h13zm0 9.335h-13c-.276 0-.5-.209-.5-.466V1.956l6.672 5.398a.52.52 0 00.328.114.52.52 0 00.328-.114L19 1.956v7.846c0 .257-.224.466-.5.466z"/></mask><path d="M18.5 0h-13C4.673 0 4 .628 4 1.4v8.402c0 .772.673 1.4 1.5 1.4h13c.827 0 1.5-.628 1.5-1.4V1.4c0-.772-.673-1.4-1.5-1.4zm0 .933c.068 0 .133.014.192.037L12 6.384 5.308.97A.529.529 0 015.5.933h13zm0 9.335h-13c-.276 0-.5-.209-.5-.466V1.956l6.672 5.398a.52.52 0 00.328.114.52.52 0 00.328-.114L19 1.956v7.846c0 .257-.224.466-.5.466z" fill="#2196F3"/><path d="M18.692.97l.672.83L20.796.641 19.08-.026l-.387.996zM12 6.384l-.672.83.672.544.672-.544-.672-.83zM5.308.97l-.387-.997-1.718.668L4.636 1.8 5.308.97zM5 1.956l.672-.831-1.74-1.409v2.24H5zm6.672 5.398l-.672.83v.002l.672-.832zm.656 0l.671.831-.671-.831zM19 1.956h1.069v-2.24l-1.741 1.409.672.83zm0 7.846h1.069H19zm-.5-10.87h-13v2.137h13V-1.07zm-13 0C4.153-1.069 2.931-.03 2.931 1.4H5.07c0-.114.124-.331.431-.331V-1.07zM2.931 1.4v8.402H5.07V1.4H2.93zm0 8.402c0 1.43 1.222 2.469 2.569 2.469v-2.138c-.307 0-.431-.217-.431-.331H2.93zM5.5 12.27h13v-2.138h-13v2.138zm13 0c1.347 0 2.569-1.039 2.569-2.47H18.93c0 .115-.124.332-.431.332v2.138zm2.569-2.47v-8.4H18.93v8.4h2.138zm0-8.4c0-1.431-1.222-2.47-2.569-2.47V1.07c.307 0 .431.217.431.331h2.138zm-2.569.601a.541.541 0 01-.196-.036l.775-1.992a1.596 1.596 0 00-.579-.11v2.138zM18.02.14l-6.692 5.414 1.344 1.661L19.364 1.8 18.019.14zm-5.348 5.414L5.981.139 4.636 1.8l6.692 5.413 1.344-1.661zM5.695 1.966a.54.54 0 01-.195.036V-.135c-.207 0-.403.04-.579.108l.774 1.993zm-.195.036h13V-.135h-13v2.137zm13 7.198h-13v2.137h13V9.2zm-13 0c.244 0 .569.2.569.602H3.93c0 .916.773 1.535 1.569 1.535V9.2zm.569.602V1.956H3.93v7.846H6.07zM4.328 2.787L11 8.185l1.345-1.662-6.673-5.398-1.344 1.662zM11 8.186c.296.239.654.35.999.35V6.4c.112 0 .236.036.344.123L11 8.186zm.999.35a1.59 1.59 0 001-.35l-1.344-1.663A.548.548 0 0112 6.399v2.138zm1-.351l6.672-5.398-1.344-1.662-6.673 5.398L13 8.185zm4.931-6.23v7.847h2.138V1.956H17.93zm0 7.847c0-.401.325-.602.569-.602v2.137c.796 0 1.569-.62 1.569-1.535H17.93z" fill="#000" mask="url(#a)"/><path d="M18.692.97l.672.83L20.796.641 19.08-.026l-.387.996zM12 6.384l-.672.83.672.544.672-.544-.672-.83zM5.308.97l-.387-.997-1.718.668L4.636 1.8 5.308.97zM5 1.956l.672-.831-1.74-1.409v2.24H5zm6.672 5.398l-.672.83v.002l.672-.832zm.656 0l.671.831-.671-.831zM19 1.956h1.069v-2.24l-1.741 1.409.672.83zm0 7.846h1.069H19zm-.5-10.87h-13v2.137h13V-1.07zm-13 0C4.153-1.069 2.931-.03 2.931 1.4H5.07c0-.114.124-.331.431-.331V-1.07zM2.931 1.4v8.402H5.07V1.4H2.93zm0 8.402c0 1.43 1.222 2.469 2.569 2.469v-2.138c-.307 0-.431-.217-.431-.331H2.93zM5.5 12.27h13v-2.138h-13v2.138zm13 0c1.347 0 2.569-1.039 2.569-2.47H18.93c0 .115-.124.332-.431.332v2.138zm2.569-2.47v-8.4H18.93v8.4h2.138zm0-8.4c0-1.431-1.222-2.47-2.569-2.47V1.07c.307 0 .431.217.431.331h2.138zm-2.569.601a.541.541 0 01-.196-.036l.775-1.992a1.596 1.596 0 00-.579-.11v2.138zM18.02.14l-6.692 5.414 1.344 1.661L19.364 1.8 18.019.14zm-5.348 5.414L5.981.139 4.636 1.8l6.692 5.413 1.344-1.661zM5.695 1.966a.54.54 0 01-.195.036V-.135c-.207 0-.403.04-.579.108l.774 1.993zm-.195.036h13V-.135h-13v2.137zm13 7.198h-13v2.137h13V9.2zm-13 0c.244 0 .569.2.569.602H3.93c0 .916.773 1.535 1.569 1.535V9.2zm.569.602V1.956H3.93v7.846H6.07zM4.328 2.787L11 8.185l1.345-1.662-6.673-5.398-1.344 1.662zM11 8.186c.296.239.654.35.999.35V6.4c.112 0 .236.036.344.123L11 8.186zm.999.35a1.59 1.59 0 001-.35l-1.344-1.663A.548.548 0 0112 6.399v2.138zm1-.351l6.672-5.398-1.344-1.662-6.673 5.398L13 8.185zm4.931-6.23v7.847h2.138V1.956H17.93zm0 7.847c0-.401.325-.602.569-.602v2.137c.796 0 1.569-.62 1.569-1.535H17.93z" fill="url(#paint0_linear)" mask="url(#a)"/><path d="M18.692.97l.672.83L20.796.641 19.08-.026l-.387.996zM12 6.384l-.672.83.672.544.672-.544-.672-.83zM5.308.97l-.387-.997-1.718.668L4.636 1.8 5.308.97zM5 1.956l.672-.831-1.74-1.409v2.24H5zm6.672 5.398l-.672.83v.002l.672-.832zm.656 0l.671.831-.671-.831zM19 1.956h1.069v-2.24l-1.741 1.409.672.83zm0 7.846h1.069H19zm-.5-10.87h-13v2.137h13V-1.07zm-13 0C4.153-1.069 2.931-.03 2.931 1.4H5.07c0-.114.124-.331.431-.331V-1.07zM2.931 1.4v8.402H5.07V1.4H2.93zm0 8.402c0 1.43 1.222 2.469 2.569 2.469v-2.138c-.307 0-.431-.217-.431-.331H2.93zM5.5 12.27h13v-2.138h-13v2.138zm13 0c1.347 0 2.569-1.039 2.569-2.47H18.93c0 .115-.124.332-.431.332v2.138zm2.569-2.47v-8.4H18.93v8.4h2.138zm0-8.4c0-1.431-1.222-2.47-2.569-2.47V1.07c.307 0 .431.217.431.331h2.138zm-2.569.601a.541.541 0 01-.196-.036l.775-1.992a1.596 1.596 0 00-.579-.11v2.138zM18.02.14l-6.692 5.414 1.344 1.661L19.364 1.8 18.019.14zm-5.348 5.414L5.981.139 4.636 1.8l6.692 5.413 1.344-1.661zM5.695 1.966a.54.54 0 01-.195.036V-.135c-.207 0-.403.04-.579.108l.774 1.993zm-.195.036h13V-.135h-13v2.137zm13 7.198h-13v2.137h13V9.2zm-13 0c.244 0 .569.2.569.602H3.93c0 .916.773 1.535 1.569 1.535V9.2zm.569.602V1.956H3.93v7.846H6.07zM4.328 2.787L11 8.185l1.345-1.662-6.673-5.398-1.344 1.662zM11 8.186c.296.239.654.35.999.35V6.4c.112 0 .236.036.344.123L11 8.186zm.999.35a1.59 1.59 0 001-.35l-1.344-1.663A.548.548 0 0112 6.399v2.138zm1-.351l6.672-5.398-1.344-1.662-6.673 5.398L13 8.185zm4.931-6.23v7.847h2.138V1.956H17.93zm0 7.847c0-.401.325-.602.569-.602v2.137c.796 0 1.569-.62 1.569-1.535H17.93z" fill="url(#paint1_linear)" mask="url(#a)"/><path d="M18.692.97l.672.83L20.796.641 19.08-.026l-.387.996zM12 6.384l-.672.83.672.544.672-.544-.672-.83zM5.308.97l-.387-.997-1.718.668L4.636 1.8 5.308.97zM5 1.956l.672-.831-1.74-1.409v2.24H5zm6.672 5.398l-.672.83v.002l.672-.832zm.656 0l.671.831-.671-.831zM19 1.956h1.069v-2.24l-1.741 1.409.672.83zm0 7.846h1.069H19zm-.5-10.87h-13v2.137h13V-1.07zm-13 0C4.153-1.069 2.931-.03 2.931 1.4H5.07c0-.114.124-.331.431-.331V-1.07zM2.931 1.4v8.402H5.07V1.4H2.93zm0 8.402c0 1.43 1.222 2.469 2.569 2.469v-2.138c-.307 0-.431-.217-.431-.331H2.93zM5.5 12.27h13v-2.138h-13v2.138zm13 0c1.347 0 2.569-1.039 2.569-2.47H18.93c0 .115-.124.332-.431.332v2.138zm2.569-2.47v-8.4H18.93v8.4h2.138zm0-8.4c0-1.431-1.222-2.47-2.569-2.47V1.07c.307 0 .431.217.431.331h2.138zm-2.569.601a.541.541 0 01-.196-.036l.775-1.992a1.596 1.596 0 00-.579-.11v2.138zM18.02.14l-6.692 5.414 1.344 1.661L19.364 1.8 18.019.14zm-5.348 5.414L5.981.139 4.636 1.8l6.692 5.413 1.344-1.661zM5.695 1.966a.54.54 0 01-.195.036V-.135c-.207 0-.403.04-.579.108l.774 1.993zm-.195.036h13V-.135h-13v2.137zm13 7.198h-13v2.137h13V9.2zm-13 0c.244 0 .569.2.569.602H3.93c0 .916.773 1.535 1.569 1.535V9.2zm.569.602V1.956H3.93v7.846H6.07zM4.328 2.787L11 8.185l1.345-1.662-6.673-5.398-1.344 1.662zM11 8.186c.296.239.654.35.999.35V6.4c.112 0 .236.036.344.123L11 8.186zm.999.35a1.59 1.59 0 001-.35l-1.344-1.663A.548.548 0 0112 6.399v2.138zm1-.351l6.672-5.398-1.344-1.662-6.673 5.398L13 8.185zm4.931-6.23v7.847h2.138V1.956H17.93zm0 7.847c0-.401.325-.602.569-.602v2.137c.796 0 1.569-.62 1.569-1.535H17.93z" fill="url(#paint2_linear)" mask="url(#a)"/></g><defs><linearGradient id="paint0_linear" x1="12" y1="0" x2="12" y2="11.202" gradientUnits="userSpaceOnUse"><stop stop-color="#fff"/><stop offset="1" stop-color="#fff" stop-opacity="0"/></linearGradient><linearGradient id="paint1_linear" x1="12" y1="0" x2="12" y2="11.202" gradientUnits="userSpaceOnUse"><stop stop-color="#fff"/><stop offset="1" stop-color="#fff" stop-opacity="0"/></linearGradient><linearGradient id="paint2_linear" x1="12" y1="0" x2="12" y2="11.202" gradientUnits="userSpaceOnUse"><stop stop-color="#fff"/><stop offset="1" stop-color="#fff" stop-opacity="0"/></linearGradient><filter id="filter0_d" x="0" y="0" width="24" height="19.202" filterUnits="userSpaceOnUse" color-interpolation-filters="sRGB"><feFlood flood-opacity="0" result="BackgroundImageFix"/><feColorMatrix in="SourceAlpha" values="0 0 0 0 0 0 0 0 0 0 0 0 0 0 0 0 0 0 127 0"/><feOffset dy="4"/><feGaussianBlur stdDeviation="2"/><feColorMatrix values="0 0 0 0 0 0 0 0 0 0 0 0 0 0 0 0 0 0 0.25 0"/><feBlend in2="BackgroundImageFix" result="effect1_dropShadow"/><feBlend in="SourceGraphic" in2="effect1_dropShadow" result="shape"/></filter></defs></svg>
